;FLAVOR:Marlin
;TIME:9196
;Filament used: 9.39766m
;Layer height: 0.3
;MINX:39.688
;MINY:68.262
;MINZ:0.3
;MAXX:180.312
;MAXY:151.738
;MAXZ:12.6
;Generated with Cura_SteamEngine 4.8.0
M140 S60
M105
M190 S60
M104 S190
M105
M109 S190
M82 ;absolute extrusion mode
; Ender 3 Custom Start G-code
G92 E0 ; Reset Extruder
G28 ; Home all axes
G1 Z2.0 F3000 ; Move Z Axis up little to prevent scratching of Heat Bed
G1 X0.1 Y20 Z0.3 F5000.0 ; Move to start position
G1 X0.1 Y200.0 Z0.3 F1500.0 E15 ; Draw the first line
G1 X0.4 Y200.0 Z0.3 F5000.0 ; Move to side a little
G1 X0.4 Y20 Z0.3 F1500.0 E30 ; Draw the second line
G92 E0 ; Reset Extruder
G1 Z2.0 F3000 ; Move Z Axis up little to prevent scratching of Heat Bed
G1 X5 Y20 Z0.3 F5000.0 ; Move over to prevent blob squish
G92 E0
G92 E0
G1 F3000 E-6
;LAYER_COUNT:42
;LAYER:0
M107
;MESH:left-twoni-case.stl
G0 F6000 X63.026 Y130.734 Z0.3
;TYPE:WALL-INNER
G1 F3000 E0
G1 F1200 X63.421 Y130.52 E0.02241
G1 X63.752 Y130.217 E0.0448
G1 X63.996 Y129.842 E0.06712
G1 X64.139 Y129.423 E0.08921
G1 X64.177 Y129.059 E0.10747
G1 X64.141 Y128.681 E0.12641
G1 X64.005 Y128.274 E0.14782
G1 X63.763 Y127.897 E0.17017
G1 X63.435 Y127.591 E0.19255
G1 X63.044 Y127.375 E0.21484
G1 X62.61 Y127.261 E0.23722
G1 X62.161 Y127.258 E0.25962
G1 X61.724 Y127.366 E0.28208
G1 X61.329 Y127.58 E0.3045
G1 X61.004 Y127.879 E0.32653
G1 X60.785 Y128.199 E0.34587
G1 X60.626 Y128.605 E0.36763
G1 X60.572 Y129.041 E0.38954
G1 X60.622 Y129.485 E0.41184
G1 X60.784 Y129.9 E0.43406
G1 X61.002 Y130.22 E0.45338
G1 X61.323 Y130.516 E0.47516
G1 X61.708 Y130.726 E0.49704
G1 X62.14 Y130.839 E0.51932
G1 X62.589 Y130.842 E0.54172
G1 X63.026 Y130.734 E0.56418
G0 F6000 X62.88 Y130.358
;TYPE:WALL-OUTER
G1 F1200 X63.187 Y130.192 E0.58159
G1 X63.444 Y129.956 E0.599
G1 X63.634 Y129.665 E0.61634
G1 X63.746 Y129.337 E0.63363
G1 X63.775 Y129.057 E0.64767
G1 X63.747 Y128.765 E0.66231
G1 X63.641 Y128.448 E0.67898
G1 X63.453 Y128.155 E0.69635
G1 X63.198 Y127.917 E0.71375
G1 X62.894 Y127.749 E0.73108
G1 X62.557 Y127.661 E0.74846
G1 X62.208 Y127.658 E0.76587
G1 X61.87 Y127.742 E0.78325
G1 X61.563 Y127.908 E0.80066
G1 X61.308 Y128.142 E0.81793
G1 X61.141 Y128.387 E0.83272
G1 X61.017 Y128.704 E0.8497
G1 X60.975 Y129.043 E0.86674
G1 X61.014 Y129.388 E0.88407
G1 X61.14 Y129.712 E0.90141
G1 X61.307 Y129.957 E0.9162
G1 X61.558 Y130.188 E0.93322
G1 X61.857 Y130.351 E0.95021
G1 X62.193 Y130.439 E0.96754
G1 X62.542 Y130.442 E0.98495
G1 X62.88 Y130.358 E1.00233
G0 F6000 X63.038 Y130.768
G0 X63.062 Y130.827
G0 X63.782 Y130.242
G0 X64.031 Y129.859
G0 X64.178 Y129.431
G0 X64.178 Y129.002
G0 X63.062 Y111.777
G0 X63.026 Y111.684
;TYPE:WALL-INNER
G1 F1200 X63.421 Y111.47 E1.02474
G1 X63.752 Y111.167 E1.04713
G1 X63.996 Y110.792 E1.06945
G1 X64.139 Y110.373 E1.09154
G1 X64.177 Y110.009 E1.10979
G1 X64.141 Y109.631 E1.12874
G1 X64.005 Y109.224 E1.15015
G1 X63.763 Y108.847 E1.1725
G1 X63.435 Y108.541 E1.19488
G1 X63.044 Y108.325 E1.21716
G1 X62.61 Y108.211 E1.23955
G1 X62.161 Y108.208 E1.26195
G1 X61.724 Y108.316 E1.28441
G1 X61.329 Y108.53 E1.30682
G1 X61.004 Y108.829 E1.32885
G1 X60.785 Y109.149 E1.3482
G1 X60.626 Y109.555 E1.36995
G1 X60.572 Y109.991 E1.39187
G1 X60.622 Y110.435 E1.41416
G1 X60.784 Y110.85 E1.43639
G1 X61.002 Y111.17 E1.45571
G1 X61.323 Y111.466 E1.47749
G1 X61.708 Y111.676 E1.49937
G1 X62.14 Y111.789 E1.52165
G1 X62.589 Y111.792 E1.54405
G1 X63.026 Y111.684 E1.56651
G0 F6000 X62.88 Y111.308
;TYPE:WALL-OUTER
G1 F1200 X63.187 Y111.142 E1.58392
G1 X63.444 Y110.906 E1.60133
G1 X63.634 Y110.615 E1.61867
G1 X63.746 Y110.287 E1.63596
G1 X63.775 Y110.007 E1.65
G1 X63.747 Y109.715 E1.66464
G1 X63.641 Y109.398 E1.68131
G1 X63.453 Y109.105 E1.69868
G1 X63.198 Y108.867 E1.71608
G1 X62.894 Y108.699 E1.73341
G1 X62.557 Y108.611 E1.75079
G1 X62.208 Y108.608 E1.7682
G1 X61.87 Y108.692 E1.78558
G1 X61.563 Y108.858 E1.80299
G1 X61.308 Y109.092 E1.82025
G1 X61.141 Y109.337 E1.83505
G1 X61.017 Y109.654 E1.85203
G1 X60.975 Y109.993 E1.86907
G1 X61.014 Y110.338 E1.88639
G1 X61.14 Y110.662 E1.90374
G1 X61.307 Y110.907 E1.91853
G1 X61.558 Y111.138 E1.93555
G1 X61.857 Y111.301 E1.95254
G1 X62.193 Y111.389 E1.96987
G1 X62.542 Y111.392 E1.98728
G1 X62.88 Y111.308 E2.00465
G0 F6000 X63.038 Y111.718
G1 F3000 E-3.99535
G0 F6000 X63.062 Y111.777
G0 X156.922 Y92.718
G0 X156.958 Y92.626
;TYPE:WALL-INNER
G1 F3000 E2.00465
G1 F1200 X157.39 Y92.739 E2.02693
G1 X157.839 Y92.742 E2.04933
G1 X158.276 Y92.634 E2.07179
G1 X158.671 Y92.42 E2.0942
G1 X159.002 Y92.117 E2.11659
G1 X159.246 Y91.742 E2.13891
G1 X159.389 Y91.323 E2.161
G1 X159.427 Y90.959 E2.17926
G1 X159.391 Y90.581 E2.1982
G1 X159.255 Y90.174 E2.21961
G1 X159.013 Y89.797 E2.24196
G1 X158.685 Y89.491 E2.26434
G1 X158.294 Y89.275 E2.28663
G1 X157.86 Y89.161 E2.30901
G1 X157.411 Y89.158 E2.33141
G1 X156.974 Y89.266 E2.35387
G1 X156.579 Y89.48 E2.37629
G1 X156.254 Y89.779 E2.39832
G1 X156.035 Y90.099 E2.41766
G1 X155.876 Y90.505 E2.43942
G1 X155.822 Y90.941 E2.46134
G1 X155.872 Y91.385 E2.48363
G1 X156.034 Y91.8 E2.50585
G1 X156.252 Y92.12 E2.52517
G1 X156.573 Y92.416 E2.54695
G1 X156.958 Y92.626 E2.56883
G0 F6000 X157.107 Y92.251
;TYPE:WALL-OUTER
G1 F1200 X157.443 Y92.339 E2.58616
G1 X157.792 Y92.342 E2.60357
G1 X158.13 Y92.258 E2.62095
G1 X158.437 Y92.092 E2.63836
G1 X158.694 Y91.856 E2.65577
G1 X158.884 Y91.565 E2.67311
G1 X158.996 Y91.237 E2.6904
G1 X159.025 Y90.957 E2.70444
G1 X158.997 Y90.665 E2.71908
G1 X158.891 Y90.348 E2.73575
G1 X158.703 Y90.055 E2.75312
G1 X158.448 Y89.817 E2.77053
G1 X158.144 Y89.649 E2.78785
G1 X157.807 Y89.561 E2.80523
G1 X157.458 Y89.558 E2.82264
G1 X157.12 Y89.642 E2.84002
G1 X156.813 Y89.808 E2.85743
G1 X156.558 Y90.042 E2.8747
G1 X156.391 Y90.287 E2.88949
G1 X156.267 Y90.604 E2.90647
G1 X156.225 Y90.943 E2.92351
G1 X156.264 Y91.288 E2.94084
G1 X156.39 Y91.612 E2.95818
G1 X156.557 Y91.857 E2.97297
G1 X156.808 Y92.088 E2.98999
G1 X157.107 Y92.251 E3.00698
G0 F6000 X156.945 Y92.66
G1 F3000 E-2.99302
G0 F6000 X156.922 Y92.718
G0 X140.231 Y129.859
G0 X139.982 Y130.242
G0 X139.644 Y130.552
G0 X139.24 Y130.771
G0 X138.838 Y130.87
G0 X137.872 Y130.818
G0 X137.908 Y130.726
;TYPE:WALL-INNER
G1 F3000 E3.00698
G1 F1200 X138.34 Y130.839 E3.02926
G1 X138.789 Y130.842 E3.05166
G1 X139.226 Y130.734 E3.07412
G1 X139.621 Y130.52 E3.09653
G1 X139.952 Y130.217 E3.11892
G1 X140.196 Y129.842 E3.14124
G1 X140.339 Y129.423 E3.16333
G1 X140.377 Y129.059 E3.18159
G1 X140.341 Y128.681 E3.20053
G1 X140.205 Y128.274 E3.22194
G1 X139.963 Y127.897 E3.24429
G1 X139.635 Y127.591 E3.26667
G1 X139.244 Y127.375 E3.28895
G1 X138.81 Y127.261 E3.31134
G1 X138.361 Y127.258 E3.33374
G1 X137.924 Y127.366 E3.3562
G1 X137.529 Y127.58 E3.37861
G1 X137.204 Y127.879 E3.40064
G1 X136.985 Y128.199 E3.41999
G1 X136.826 Y128.605 E3.44174
G1 X136.772 Y129.041 E3.46366
G1 X136.822 Y129.485 E3.48595
G1 X136.984 Y129.9 E3.50818
G1 X137.202 Y130.22 E3.5275
G1 X137.523 Y130.516 E3.54928
G1 X137.908 Y130.726 E3.57116
G0 F6000 X138.057 Y130.351
;TYPE:WALL-OUTER
G1 F1200 X138.393 Y130.439 E3.58849
G1 X138.742 Y130.442 E3.6059
G1 X139.08 Y130.358 E3.62328
G1 X139.387 Y130.192 E3.64069
G1 X139.644 Y129.956 E3.6581
G1 X139.834 Y129.665 E3.67544
G1 X139.946 Y129.337 E3.69273
G1 X139.975 Y129.057 E3.70677
G1 X139.947 Y128.765 E3.72141
G1 X139.841 Y128.448 E3.73808
G1 X139.653 Y128.155 E3.75545
G1 X139.398 Y127.917 E3.77285
G1 X139.094 Y127.749 E3.79018
G1 X138.757 Y127.661 E3.80756
G1 X138.408 Y127.658 E3.82497
G1 X138.07 Y127.742 E3.84235
G1 X137.763 Y127.908 E3.85976
G1 X137.508 Y128.142 E3.87702
G1 X137.341 Y128.387 E3.89182
G1 X137.217 Y128.704 E3.9088
G1 X137.175 Y129.043 E3.92584
G1 X137.214 Y129.388 E3.94316
G1 X137.34 Y129.712 E3.96051
G1 X137.507 Y129.957 E3.9753
G1 X137.758 Y130.188 E3.99232
G1 X138.057 Y130.351 E4.00931
G0 F6000 X137.895 Y130.76
G1 F3000 E-1.99069
G0 F6000 X137.872 Y130.818
G0 X45.458 Y151.239
G0 X45.457 Y151.338
;TYPE:WALL-INNER
G1 F3000 E4.00931
G1 F1200 X45.172 Y151.33 E4.02353
G1 X44.913 Y151.312 E4.03648
G1 X44.656 Y151.28 E4.04941
G1 X44.4 Y151.235 E4.06237
G1 X44.154 Y151.179 E4.07496
G1 X43.87 Y151.101 E4.08965
G1 X43.632 Y151.024 E4.10213
G1 X43.403 Y150.934 E4.11441
G1 X43.154 Y150.824 E4.12799
G1 X42.921 Y150.708 E4.14097
G1 X42.677 Y150.569 E4.15498
G1 X42.463 Y150.433 E4.16763
G1 X42.242 Y150.277 E4.18113
G1 X42.048 Y150.125 E4.19343
G1 X41.842 Y149.947 E4.20701
G1 X41.652 Y149.766 E4.2201
G1 X41.473 Y149.578 E4.23305
G1 X41.295 Y149.371 E4.24667
G1 X41.138 Y149.17 E4.2594
G1 X40.991 Y148.96 E4.27219
G1 X40.844 Y148.727 E4.28593
G1 X40.711 Y148.492 E4.2994
G1 X40.604 Y148.278 E4.31134
G1 X40.494 Y148.029 E4.32492
G1 X40.402 Y147.789 E4.33774
G1 X40.317 Y147.532 E4.35125
G1 X40.244 Y147.27 E4.36482
G1 X40.188 Y147.017 E4.37774
G1 X40.145 Y146.769 E4.3903
G1 X40.112 Y146.504 E4.40362
G1 X40.095 Y146.255 E4.41608
G1 X40.088 Y145.984 E4.4296
G1 X40.088 Y93.081 E7.06894
G1 X40.095 Y92.789 E7.08351
G1 X40.111 Y92.554 E7.09527
G1 X40.146 Y92.277 E7.1092
G1 X40.192 Y92.013 E7.12256
G1 X40.246 Y91.776 E7.13469
G1 X40.321 Y91.505 E7.14872
G1 X40.403 Y91.258 E7.1617
G1 X40.495 Y91.018 E7.17453
G1 X40.596 Y90.789 E7.18701
G1 X40.722 Y90.537 E7.20107
G1 X40.841 Y90.327 E7.21311
G1 X40.993 Y90.088 E7.22724
G1 X41.132 Y89.889 E7.23935
G1 X41.312 Y89.659 E7.25392
G1 X41.468 Y89.479 E7.26581
G1 X41.66 Y89.276 E7.27975
G1 X41.843 Y89.103 E7.29231
G1 X42.049 Y88.925 E7.30589
G1 X42.256 Y88.763 E7.31901
G1 X42.462 Y88.618 E7.33158
G1 X42.696 Y88.47 E7.34539
G1 X42.915 Y88.345 E7.35797
G1 X43.146 Y88.229 E7.37087
G1 X43.391 Y88.122 E7.3842
G1 X43.633 Y88.028 E7.39716
G1 X43.885 Y87.944 E7.41041
G1 X44.154 Y87.87 E7.42433
G1 X44.396 Y87.815 E7.43671
G1 X44.653 Y87.771 E7.44972
G1 X44.921 Y87.737 E7.4632
G1 X45.168 Y87.72 E7.47555
G1 X45.456 Y87.713 E7.48992
G1 X111.986 Y87.713 E10.80912
G1 X112.418 Y87.69 E10.8307
G1 X112.859 Y87.625 E10.85294
G1 X113.292 Y87.518 E10.87519
G1 X113.717 Y87.365 E10.89773
G1 X114.123 Y87.174 E10.92011
G1 X114.508 Y86.943 E10.94251
G1 X114.867 Y86.677 E10.9648
G1 X115.197 Y86.377 E10.98705
G1 X115.499 Y86.045 E11.00944
G1 X115.766 Y85.686 E11.03176
G1 X115.997 Y85.301 E11.05416
G1 X116.188 Y84.896 E11.0765
G1 X116.341 Y84.474 E11.0989
G1 X116.449 Y84.038 E11.12131
G1 X116.515 Y83.593 E11.14375
G1 X116.538 Y83.159 E11.16543
G1 X116.538 Y74.028 E11.62098
G1 X116.545 Y73.736 E11.63555
G1 X116.564 Y73.486 E11.64806
G1 X116.598 Y73.216 E11.66164
G1 X116.642 Y72.964 E11.6744
G1 X116.697 Y72.719 E11.68693
G1 X116.767 Y72.465 E11.70007
G1 X116.845 Y72.225 E11.71266
G1 X116.948 Y71.961 E11.7268
G1 X117.055 Y71.718 E11.74005
G1 X117.162 Y71.506 E11.7519
G1 X117.298 Y71.266 E11.76566
G1 X117.448 Y71.03 E11.77961
G1 X117.591 Y70.828 E11.79196
G1 X117.764 Y70.607 E11.80596
G1 X117.928 Y70.417 E11.81848
G1 X118.104 Y70.232 E11.83122
G1 X118.293 Y70.052 E11.84424
G1 X118.495 Y69.877 E11.85758
G1 X118.695 Y69.72 E11.87026
G1 X118.916 Y69.566 E11.8837
G1 X119.148 Y69.419 E11.8974
G1 X119.373 Y69.292 E11.91029
G1 X119.605 Y69.175 E11.92325
G1 X119.85 Y69.067 E11.93661
G1 X120.085 Y68.975 E11.9492
G1 X120.337 Y68.893 E11.96242
G1 X120.594 Y68.822 E11.97573
G1 X120.839 Y68.767 E11.98825
G1 X121.109 Y68.72 E12.00193
G1 X121.368 Y68.688 E12.01495
G1 X121.624 Y68.67 E12.02775
G1 X121.908 Y68.662 E12.04192
G1 X174.546 Y68.662 E14.66805
G1 X174.836 Y68.67 E14.68252
G1 X175.082 Y68.687 E14.69482
G1 X175.34 Y68.72 E14.7078
G1 X175.619 Y68.769 E14.72193
G1 X175.863 Y68.824 E14.73441
G1 X176.112 Y68.893 E14.7473
G1 X176.367 Y68.977 E14.76069
G1 X176.606 Y69.069 E14.77347
G1 X176.848 Y69.176 E14.78667
G1 X177.078 Y69.292 E14.79952
G1 X177.314 Y69.426 E14.81306
G1 X177.548 Y69.575 E14.8269
G1 X177.743 Y69.713 E14.83882
G1 X177.953 Y69.877 E14.85211
G1 X178.159 Y70.055 E14.8657
G1 X178.349 Y70.235 E14.87875
G1 X178.524 Y70.42 E14.89146
G1 X178.702 Y70.626 E14.90504
G1 X178.852 Y70.817 E14.91716
G1 X179.009 Y71.04 E14.93076
G1 X179.155 Y71.271 E14.9444
G1 X179.284 Y71.499 E14.95747
G1 X179.4 Y71.73 E14.97036
G1 X179.508 Y71.975 E14.98372
G1 X179.598 Y72.204 E14.996
G1 X179.683 Y72.465 E15.00969
G1 X179.753 Y72.719 E15.02284
G1 X179.807 Y72.961 E15.03521
G1 X179.852 Y73.216 E15.04813
G1 X179.889 Y73.509 E15.06286
G1 X179.905 Y73.742 E15.07451
G1 X179.912 Y74.016 E15.08819
G1 X179.912 Y145.97 E18.67798
G1 X179.905 Y146.258 E18.69236
G1 X179.888 Y146.501 E18.70451
G1 X179.854 Y146.77 E18.71804
G1 X179.81 Y147.027 E18.73105
G1 X179.752 Y147.284 E18.74419
G1 X179.679 Y147.547 E18.75781
G1 X179.606 Y147.772 E18.76961
G1 X179.506 Y148.029 E18.78337
G1 X179.404 Y148.262 E18.79606
G1 X179.287 Y148.497 E18.80915
G1 X179.15 Y148.738 E18.82298
G1 X179.016 Y148.95 E18.8355
G1 X178.856 Y149.178 E18.84939
G1 X178.705 Y149.371 E18.86162
G1 X178.525 Y149.58 E18.87538
G1 X178.346 Y149.768 E18.88833
G1 X178.157 Y149.947 E18.90132
G1 X177.951 Y150.125 E18.9149
G1 X177.751 Y150.282 E18.92759
G1 X177.544 Y150.428 E18.94022
G1 X177.304 Y150.58 E18.9544
G1 X177.096 Y150.699 E18.96635
G1 X176.846 Y150.825 E18.98032
G1 X176.609 Y150.929 E18.99323
G1 X176.364 Y151.024 E19.00634
G1 X176.106 Y151.109 E19.01989
G1 X175.86 Y151.177 E19.03263
G1 X175.605 Y151.235 E19.04567
G1 X175.345 Y151.279 E19.05883
G1 X175.077 Y151.313 E19.07231
G1 X174.833 Y151.33 E19.08451
G1 X174.543 Y151.338 E19.09898
G1 X45.457 Y151.338 E25.53911
G0 F6000 X45.446 Y151.738
;TYPE:WALL-OUTER
G1 F1200 X45.154 Y151.73 E25.55368
G1 X44.875 Y151.71 E25.56764
G1 X44.601 Y151.676 E25.58141
G1 X44.318 Y151.627 E25.59574
G1 X44.045 Y151.565 E25.60971
G1 X43.763 Y151.487 E25.62431
G1 X43.499 Y151.401 E25.63816
G1 X43.244 Y151.301 E25.65182
G1 X42.976 Y151.183 E25.66643
G1 X42.73 Y151.06 E25.68015
G1 X42.479 Y150.917 E25.69457
G1 X42.242 Y150.766 E25.70859
G1 X42.009 Y150.602 E25.7228
G1 X41.793 Y150.433 E25.73648
G1 X41.581 Y150.25 E25.75046
G1 X41.369 Y150.049 E25.76503
G1 X41.173 Y149.842 E25.77925
G1 X40.992 Y149.632 E25.79308
G1 X40.817 Y149.408 E25.80727
G1 X40.655 Y149.177 E25.82134
G1 X40.502 Y148.935 E25.83563
G1 X40.363 Y148.689 E25.84972
G1 X40.238 Y148.44 E25.86362
G1 X40.128 Y148.19 E25.87725
G1 X40.022 Y147.915 E25.89195
G1 X39.937 Y147.658 E25.90546
G1 X39.858 Y147.374 E25.92017
G1 X39.797 Y147.102 E25.93407
G1 X39.749 Y146.824 E25.94815
G1 X39.714 Y146.543 E25.96227
G1 X39.695 Y146.271 E25.97588
G1 X39.688 Y145.984 E25.9902
G1 X39.688 Y93.071 E28.63004
G1 X39.695 Y92.779 E28.64461
G1 X39.714 Y92.504 E28.65837
G1 X39.749 Y92.227 E28.6723
G1 X39.798 Y91.945 E28.68658
G1 X39.86 Y91.669 E28.70069
G1 X39.935 Y91.398 E28.71472
G1 X40.023 Y91.132 E28.72869
G1 X40.129 Y90.857 E28.7434
G1 X40.238 Y90.61 E28.75687
G1 X40.364 Y90.358 E28.77092
G1 X40.503 Y90.112 E28.78502
G1 X40.655 Y89.873 E28.79915
G1 X40.817 Y89.642 E28.81323
G1 X40.997 Y89.412 E28.8278
G1 X41.177 Y89.204 E28.84152
G1 X41.369 Y89.001 E28.85546
G1 X41.581 Y88.8 E28.87004
G1 X41.787 Y88.622 E28.88362
G1 X42.009 Y88.448 E28.89769
G1 X42.248 Y88.28 E28.91227
G1 X42.482 Y88.132 E28.92608
G1 X42.724 Y87.994 E28.93998
G1 X42.985 Y87.863 E28.95455
G1 X43.238 Y87.752 E28.96833
G1 X43.507 Y87.648 E28.98272
G1 X43.772 Y87.56 E28.99665
G1 X44.047 Y87.484 E29.01089
G1 X44.318 Y87.423 E29.02474
G1 X44.601 Y87.374 E29.03907
G1 X44.878 Y87.339 E29.053
G1 X45.154 Y87.32 E29.0668
G1 X45.446 Y87.313 E29.08138
G1 X111.976 Y87.313 E32.40057
G1 X112.378 Y87.292 E32.42065
G1 X112.782 Y87.232 E32.44103
G1 X113.176 Y87.135 E32.46128
G1 X113.564 Y86.995 E32.48185
G1 X113.934 Y86.821 E32.50225
G1 X114.285 Y86.61 E32.52269
G1 X114.613 Y86.367 E32.54305
G1 X114.914 Y86.094 E32.56332
G1 X115.19 Y85.791 E32.58377
G1 X115.433 Y85.463 E32.60414
G1 X115.644 Y85.112 E32.62457
G1 X115.818 Y84.742 E32.64497
G1 X115.958 Y84.357 E32.66541
G1 X116.056 Y83.96 E32.68581
G1 X116.117 Y83.553 E32.70634
G1 X116.138 Y83.149 E32.72652
G1 X116.138 Y74.018 E33.18207
G1 X116.145 Y73.726 E33.19664
G1 X116.165 Y73.456 E33.21015
G1 X116.201 Y73.163 E33.22488
G1 X116.248 Y72.895 E33.23845
G1 X116.309 Y72.622 E33.25241
G1 X116.387 Y72.341 E33.26696
G1 X116.472 Y72.08 E33.28065
G1 X116.575 Y71.816 E33.29479
G1 X116.689 Y71.557 E33.30891
G1 X116.814 Y71.308 E33.32281
