;FLAVOR:Marlin
;TIME:9221
;Filament used: 9.40875m
;Layer height: 0.3
;MINX:39.688
;MINY:68.262
;MINZ:0.3
;MAXX:180.312
;MAXY:151.738
;MAXZ:12.6
;Generated with Cura_SteamEngine 4.8.0
M140 S60
M105
M190 S60
M104 S190
M105
M109 S190
M82 ;absolute extrusion mode
; Ender 3 Custom Start G-code
G92 E0 ; Reset Extruder
G28 ; Home all axes
G1 Z2.0 F3000 ; Move Z Axis up little to prevent scratching of Heat Bed
G1 X0.1 Y20 Z0.3 F5000.0 ; Move to start position
G1 X0.1 Y200.0 Z0.3 F1500.0 E15 ; Draw the first line
G1 X0.4 Y200.0 Z0.3 F5000.0 ; Move to side a little
G1 X0.4 Y20 Z0.3 F1500.0 E30 ; Draw the second line
G92 E0 ; Reset Extruder
G1 Z2.0 F3000 ; Move Z Axis up little to prevent scratching of Heat Bed
G1 X5 Y20 Z0.3 F5000.0 ; Move over to prevent blob squish
G92 E0
G92 E0
G1 F3000 E-6
;LAYER_COUNT:42
;LAYER:0
M107
;MESH:left-twoni-case.stl
G0 F6000 X156.646 Y130.566 Z0.3
;TYPE:WALL-INNER
G1 F3000 E0
G1 F1200 X157.05 Y130.761 E0.02238
G1 X157.49 Y130.85 E0.04478
G1 X157.938 Y130.827 E0.06716
G1 X158.367 Y130.696 E0.08954
G1 X158.739 Y130.469 E0.11128
G1 X159.015 Y130.198 E0.13058
G1 X159.251 Y129.833 E0.15226
G1 X159.393 Y129.408 E0.17462
G1 X159.428 Y128.961 E0.19698
G1 X159.353 Y128.531 E0.21876
G1 X159.202 Y128.174 E0.2381
G1 X158.948 Y127.822 E0.25976
G1 X158.604 Y127.534 E0.28214
G1 X158.2 Y127.339 E0.30452
G1 X157.76 Y127.25 E0.32692
G1 X157.312 Y127.273 E0.3493
G1 X156.882 Y127.404 E0.37172
G1 X156.5 Y127.639 E0.3941
G1 X156.186 Y127.96 E0.4165
G1 X155.961 Y128.35 E0.43896
G1 X155.844 Y128.766 E0.46052
G1 X155.822 Y129.066 E0.47553
G1 X155.876 Y129.496 E0.49715
G1 X156.04 Y129.913 E0.51951
G1 X156.302 Y130.277 E0.54188
G1 X156.646 Y130.566 E0.5643
G0 F6000 X156.865 Y130.227
;TYPE:WALL-OUTER
G1 F1200 X157.179 Y130.379 E0.5817
G1 X157.52 Y130.448 E0.59906
G1 X157.868 Y130.43 E0.61644
G1 X158.202 Y130.328 E0.63387
G1 X158.492 Y130.151 E0.65082
G1 X158.703 Y129.944 E0.66556
G1 X158.888 Y129.658 E0.68256
G1 X158.998 Y129.328 E0.69991
G1 X159.025 Y128.98 E0.71733
G1 X158.967 Y128.645 E0.73429
G1 X158.851 Y128.372 E0.74909
G1 X158.653 Y128.097 E0.76599
G1 X158.385 Y127.873 E0.78342
G1 X158.071 Y127.721 E0.80082
G1 X157.73 Y127.652 E0.81818
G1 X157.382 Y127.67 E0.83556
G1 X157.048 Y127.772 E0.85299
G1 X156.751 Y127.954 E0.87037
G1 X156.507 Y128.203 E0.88776
G1 X156.333 Y128.506 E0.90519
G1 X156.24 Y128.836 E0.9223
G1 X156.224 Y129.055 E0.93325
G1 X156.267 Y129.396 E0.9504
G1 X156.394 Y129.72 E0.96776
G1 X156.597 Y130.003 E0.98514
G1 X156.865 Y130.227 E1.00256
G0 F6000 X156.627 Y130.596
G0 X156.592 Y130.649
G0 X156.005 Y129.932
G0 X155.838 Y129.505
G0 X155.82 Y129.083
G0 X157.019 Y111.805
G0 X157.05 Y111.711
;TYPE:WALL-INNER
G1 F1200 X157.49 Y111.8 E1.02496
G1 X157.938 Y111.777 E1.04734
G1 X158.367 Y111.646 E1.06972
G1 X158.739 Y111.419 E1.09146
G1 X159.015 Y111.148 E1.11076
G1 X159.251 Y110.783 E1.13244
G1 X159.393 Y110.358 E1.1548
G1 X159.428 Y109.911 E1.17717
G1 X159.353 Y109.481 E1.19894
G1 X159.202 Y109.124 E1.21828
G1 X158.948 Y108.772 E1.23994
G1 X158.604 Y108.484 E1.26232
G1 X158.2 Y108.289 E1.2847
G1 X157.76 Y108.2 E1.3071
G1 X157.312 Y108.223 E1.32948
G1 X156.882 Y108.354 E1.3519
G1 X156.5 Y108.589 E1.37428
G1 X156.186 Y108.91 E1.39668
G1 X155.961 Y109.3 E1.41914
G1 X155.844 Y109.716 E1.4407
G1 X155.822 Y110.016 E1.45571
G1 X155.876 Y110.446 E1.47733
G1 X156.04 Y110.863 E1.49969
G1 X156.302 Y111.227 E1.52206
G1 X156.646 Y111.516 E1.54448
G1 X157.05 Y111.711 E1.56686
G0 F6000 X157.179 Y111.329
;TYPE:WALL-OUTER
G1 F1200 X157.52 Y111.398 E1.58422
G1 X157.868 Y111.38 E1.6016
G1 X158.202 Y111.278 E1.61902
G1 X158.492 Y111.101 E1.63597
G1 X158.703 Y110.894 E1.65072
G1 X158.888 Y110.608 E1.66771
G1 X158.998 Y110.278 E1.68507
G1 X159.025 Y109.93 E1.70248
G1 X158.967 Y109.595 E1.71944
G1 X158.851 Y109.322 E1.73424
G1 X158.653 Y109.047 E1.75115
G1 X158.385 Y108.823 E1.76857
G1 X158.071 Y108.671 E1.78598
G1 X157.73 Y108.602 E1.80334
G1 X157.382 Y108.62 E1.82072
G1 X157.048 Y108.722 E1.83814
G1 X156.751 Y108.904 E1.85552
G1 X156.507 Y109.153 E1.87292
G1 X156.333 Y109.456 E1.89035
G1 X156.24 Y109.786 E1.90745
G1 X156.224 Y110.005 E1.91841
G1 X156.267 Y110.346 E1.93555
G1 X156.394 Y110.67 E1.95292
G1 X156.597 Y110.953 E1.97029
G1 X156.865 Y111.177 E1.98772
G1 X157.179 Y111.329 E2.00512
G0 F6000 X157.039 Y111.745
G1 F3000 E-3.99488
G0 F6000 X157.019 Y111.805
G0 X63.157 Y92.687
G0 X63.117 Y92.596
;TYPE:WALL-INNER
G1 F3000 E2.00512
G1 F1200 X63.489 Y92.369 E2.02686
G1 X63.765 Y92.098 E2.04616
G1 X64.001 Y91.733 E2.06785
G1 X64.143 Y91.308 E2.0902
G1 X64.178 Y90.861 E2.11257
G1 X64.103 Y90.431 E2.13435
G1 X63.952 Y90.074 E2.15369
G1 X63.698 Y89.722 E2.17534
G1 X63.354 Y89.434 E2.19773
G1 X62.95 Y89.239 E2.22011
G1 X62.51 Y89.15 E2.2425
G1 X62.062 Y89.173 E2.26488
G1 X61.632 Y89.304 E2.28731
G1 X61.25 Y89.539 E2.30968
G1 X60.936 Y89.86 E2.33209
G1 X60.711 Y90.25 E2.35455
G1 X60.594 Y90.666 E2.37611
G1 X60.572 Y90.966 E2.39112
G1 X60.626 Y91.396 E2.41274
G1 X60.79 Y91.813 E2.43509
G1 X61.052 Y92.177 E2.45747
G1 X61.396 Y92.466 E2.47988
G1 X61.8 Y92.661 E2.50226
G1 X62.24 Y92.75 E2.52466
G1 X62.688 Y92.727 E2.54704
G1 X63.117 Y92.596 E2.56942
G0 F6000 X62.952 Y92.228
;TYPE:WALL-OUTER
G1 F1200 X63.242 Y92.051 E2.58637
G1 X63.453 Y91.844 E2.60112
G1 X63.638 Y91.558 E2.61811
G1 X63.748 Y91.228 E2.63546
G1 X63.775 Y90.88 E2.65288
G1 X63.717 Y90.545 E2.66984
G1 X63.601 Y90.272 E2.68464
G1 X63.403 Y89.997 E2.70154
G1 X63.135 Y89.773 E2.71897
G1 X62.821 Y89.621 E2.73638
G1 X62.48 Y89.552 E2.75373
G1 X62.132 Y89.57 E2.77112
G1 X61.798 Y89.672 E2.78854
G1 X61.501 Y89.854 E2.80592
G1 X61.257 Y90.103 E2.82331
G1 X61.083 Y90.406 E2.84074
G1 X60.99 Y90.736 E2.85785
G1 X60.974 Y90.955 E2.8688
G1 X61.017 Y91.296 E2.88595
G1 X61.144 Y91.62 E2.90331
G1 X61.347 Y91.903 E2.92069
G1 X61.615 Y92.127 E2.93811
G1 X61.929 Y92.279 E2.95552
G1 X62.27 Y92.348 E2.97288
G1 X62.618 Y92.33 E2.99026
G1 X62.952 Y92.228 E3.00768
G0 F6000 X63.132 Y92.629
G1 F3000 E-2.99232
G0 F6000 X63.157 Y92.687
G0 X79.805 Y129.932
G0 X80.073 Y130.304
G0 X80.425 Y130.599
G0 X80.838 Y130.798
G0 X81.243 Y130.879
G0 X82.207 Y130.787
G0 X82.167 Y130.696
;TYPE:WALL-INNER
G1 F3000 E3.00768
G1 F1200 X82.539 Y130.469 E3.02943
G1 X82.815 Y130.198 E3.04872
G1 X83.051 Y129.833 E3.07041
G1 X83.193 Y129.408 E3.09276
G1 X83.228 Y128.961 E3.11513
G1 X83.153 Y128.531 E3.13691
G1 X83.002 Y128.174 E3.15625
G1 X82.748 Y127.822 E3.1779
G1 X82.404 Y127.534 E3.20029
G1 X82 Y127.339 E3.22267
G1 X81.56 Y127.25 E3.24506
G1 X81.112 Y127.273 E3.26744
G1 X80.682 Y127.404 E3.28987
G1 X80.3 Y127.639 E3.31225
G1 X79.986 Y127.96 E3.33465
G1 X79.761 Y128.35 E3.35711
G1 X79.644 Y128.766 E3.37867
G1 X79.622 Y129.066 E3.39368
G1 X79.676 Y129.496 E3.4153
G1 X79.84 Y129.913 E3.43766
G1 X80.102 Y130.277 E3.46003
G1 X80.446 Y130.566 E3.48245
G1 X80.85 Y130.761 E3.50483
G1 X81.29 Y130.85 E3.52722
G1 X81.738 Y130.827 E3.5496
G1 X82.167 Y130.696 E3.57198
G0 F6000 X82.002 Y130.328
;TYPE:WALL-OUTER
G1 F1200 X82.292 Y130.151 E3.58893
G1 X82.503 Y129.944 E3.60368
G1 X82.688 Y129.658 E3.62067
G1 X82.798 Y129.328 E3.63803
G1 X82.825 Y128.98 E3.65544
G1 X82.767 Y128.645 E3.6724
G1 X82.651 Y128.372 E3.6872
G1 X82.453 Y128.097 E3.70411
G1 X82.185 Y127.873 E3.72153
G1 X81.871 Y127.721 E3.73894
G1 X81.53 Y127.652 E3.75629
G1 X81.182 Y127.67 E3.77368
G1 X80.848 Y127.772 E3.7911
G1 X80.551 Y127.954 E3.80848
G1 X80.307 Y128.203 E3.82587
G1 X80.133 Y128.506 E3.8433
G1 X80.04 Y128.836 E3.86041
G1 X80.024 Y129.055 E3.87136
G1 X80.067 Y129.396 E3.88851
G1 X80.194 Y129.72 E3.90587
G1 X80.397 Y130.003 E3.92325
G1 X80.665 Y130.227 E3.94068
G1 X80.979 Y130.379 E3.95808
G1 X81.32 Y130.448 E3.97544
G1 X81.668 Y130.43 E3.99282
G1 X82.002 Y130.328 E4.01025
G0 F6000 X82.182 Y130.729
G1 F3000 E-1.98975
G0 F6000 X82.207 Y130.787
G0 X174.541 Y151.239
G0 X174.542 Y151.338
;TYPE:WALL-INNER
G1 F3000 E4.01025
G1 F1200 X45.454 Y151.338 E10.45047
G1 X45.171 Y151.33 E10.4646
G1 X44.918 Y151.312 E10.47725
G1 X44.65 Y151.279 E10.49072
G1 X44.381 Y151.231 E10.50435
G1 X44.144 Y151.178 E10.51647
G1 X43.884 Y151.106 E10.52993
G1 X43.643 Y151.027 E10.54258
G1 X43.382 Y150.925 E10.55656
G1 X43.14 Y150.818 E10.56976
G1 X42.922 Y150.708 E10.58195
G1 X42.685 Y150.573 E10.59555
G1 X42.455 Y150.427 E10.60915
G1 X42.253 Y150.284 E10.62149
G1 X42.032 Y150.111 E10.6355
G1 X41.842 Y149.947 E10.64802
G1 X41.658 Y149.772 E10.66069
G1 X41.468 Y149.571 E10.67449
G1 X41.298 Y149.374 E10.68747
G1 X41.135 Y149.164 E10.70073
G1 X40.981 Y148.944 E10.71413
G1 X40.841 Y148.723 E10.72718
G1 X40.717 Y148.502 E10.73982
G1 X40.596 Y148.261 E10.75328
G1 X40.492 Y148.025 E10.76614
G1 X40.394 Y147.772 E10.77968
G1 X40.32 Y147.542 E10.79173
G1 X40.245 Y147.271 E10.80576
G1 X40.192 Y147.036 E10.81778
G1 X40.144 Y146.757 E10.8319
G1 X40.112 Y146.501 E10.84478
G1 X40.095 Y146.253 E10.85718
G1 X40.088 Y145.984 E10.8706
G1 X40.088 Y74.031 E14.46035
G1 X40.095 Y73.739 E14.47492
G1 X40.111 Y73.504 E14.48668
G1 X40.146 Y73.227 E14.5006
G1 X40.192 Y72.963 E14.51397
G1 X40.25 Y72.707 E14.52707
G1 X40.318 Y72.462 E14.53975
G1 X40.394 Y72.228 E14.55203
G1 X40.491 Y71.978 E14.56541
G1 X40.596 Y71.739 E14.57843
G1 X40.722 Y71.487 E14.59249
G1 X40.841 Y71.277 E14.60453
G1 X40.993 Y71.038 E14.61866
G1 X41.132 Y70.839 E14.63077
G1 X41.312 Y70.609 E14.64534
G1 X41.468 Y70.429 E14.65723
G1 X41.66 Y70.226 E14.67117
G1 X41.843 Y70.053 E14.68373
G1 X42.049 Y69.875 E14.69731
G1 X42.256 Y69.713 E14.71043
G1 X42.462 Y69.568 E14.72299
G1 X42.696 Y69.42 E14.73681
G1 X42.915 Y69.295 E14.74939
G1 X43.146 Y69.179 E14.76228
G1 X43.4 Y69.067 E14.77613
G1 X43.635 Y68.975 E14.78872
G1 X43.887 Y68.893 E14.80195
G1 X44.14 Y68.823 E14.81504
G1 X44.396 Y68.765 E14.82814
G1 X44.653 Y68.721 E14.84115
G1 X44.921 Y68.687 E14.85462
G1 X45.167 Y68.67 E14.86693
G1 X45.457 Y68.662 E14.8814
G1 X98.093 Y68.662 E17.50742
G1 X98.384 Y68.67 E17.52194
G1 X98.63 Y68.687 E17.53425
G1 X98.891 Y68.72 E17.54737
G1 X99.165 Y68.768 E17.56125
G1 X99.409 Y68.823 E17.57373
G1 X99.661 Y68.893 E17.58678
G1 X99.917 Y68.977 E17.60022
G1 X100.147 Y69.066 E17.61252
G1 X100.403 Y69.179 E17.62648
G1 X100.627 Y69.291 E17.63898
G1 X100.873 Y69.431 E17.6531
G1 X101.082 Y69.564 E17.66546
G1 X101.304 Y69.72 E17.67899
G1 X101.496 Y69.87 E17.69115
G1 X101.708 Y70.053 E17.70512
G1 X101.893 Y70.229 E17.71786
G1 X102.072 Y70.418 E17.73085
G1 X102.25 Y70.624 E17.74443
G1 X102.406 Y70.823 E17.75705
G1 X102.559 Y71.041 E17.77033
G1 X102.705 Y71.271 E17.78392
G1 X102.834 Y71.497 E17.79691
G1 X102.946 Y71.721 E17.8094
G1 X103.053 Y71.965 E17.82269
G1 X103.153 Y72.221 E17.83641
G1 X103.234 Y72.468 E17.84937
G1 X103.299 Y72.701 E17.86144
G1 X103.358 Y72.963 E17.87484
G1 X103.404 Y73.23 E17.88836
G1 X103.438 Y73.497 E17.90179
G1 X103.455 Y73.739 E17.91389
G1 X103.462 Y74.016 E17.92771
G1 X103.462 Y83.159 E18.38386
G1 X103.485 Y83.593 E18.40554
G1 X103.549 Y84.031 E18.42763
G1 X103.657 Y84.467 E18.45004
G1 X103.808 Y84.888 E18.47235
G1 X103.999 Y85.294 E18.49473
G1 X104.23 Y85.68 E18.51718
G1 X104.496 Y86.039 E18.53947
G1 X104.797 Y86.372 E18.56186
G1 X105.13 Y86.674 E18.58429
G1 X105.492 Y86.943 E18.60679
G1 X105.878 Y87.174 E18.62923
G1 X106.28 Y87.363 E18.6514
G1 X106.705 Y87.517 E18.67395
G1 X107.137 Y87.624 E18.69615
G1 X107.582 Y87.691 E18.7186
G1 X108.013 Y87.712 E18.74013
G1 X174.547 Y87.713 E22.05953
G1 X174.835 Y87.72 E22.0739
G1 X175.082 Y87.737 E22.08625
G1 X175.34 Y87.77 E22.09923
G1 X175.619 Y87.819 E22.11336
G1 X175.849 Y87.871 E22.12513
G1 X176.118 Y87.945 E22.13904
G1 X176.367 Y88.028 E22.15214
G1 X176.615 Y88.124 E22.16541
G1 X176.848 Y88.226 E22.1781
G1 X177.078 Y88.342 E22.19095
G1 X177.314 Y88.476 E22.20449
G1 X177.548 Y88.625 E22.21833
G1 X177.747 Y88.766 E22.23049
G1 X177.953 Y88.927 E22.24354
G1 X178.159 Y89.105 E22.25712
G1 X178.349 Y89.285 E22.27018
G1 X178.524 Y89.47 E22.28288
G1 X178.702 Y89.676 E22.29647
G1 X178.852 Y89.867 E22.30858
G1 X179.009 Y90.09 E22.32219
G1 X179.155 Y90.321 E22.33582
G1 X179.284 Y90.549 E22.34889
G1 X179.4 Y90.78 E22.36179
G1 X179.5 Y91.008 E22.37421
G1 X179.594 Y91.249 E22.38711
G1 X179.683 Y91.517 E22.4012
G1 X179.753 Y91.769 E22.41425
G1 X179.807 Y92.011 E22.42662
G1 X179.852 Y92.266 E22.43954
G1 X179.889 Y92.559 E22.45427
G1 X179.905 Y92.792 E22.46593
G1 X179.912 Y93.066 E22.4796
G1 X179.912 Y145.972 E25.11909
G1 X179.905 Y146.257 E25.13331
G1 X179.889 Y146.496 E25.14527
G1 X179.855 Y146.77 E25.15904
G1 X179.811 Y147.022 E25.1718
G1 X179.754 Y147.275 E25.18474
G1 X179.686 Y147.523 E25.19757
G1 X179.597 Y147.793 E25.21175
G1 X179.508 Y148.025 E25.22415
G1 X179.404 Y148.261 E25.23702
G1 X179.284 Y148.502 E25.25045
G1 X179.157 Y148.726 E25.2633
G1 X179.003 Y148.969 E25.27765
G1 X178.865 Y149.164 E25.28957
G1 X178.694 Y149.384 E25.30347
G1 X178.532 Y149.571 E25.31581
G1 X178.342 Y149.772 E25.32961
G1 X178.157 Y149.948 E25.34235
G1 X177.955 Y150.123 E25.35568
G1 X177.755 Y150.279 E25.36834
G1 X177.534 Y150.434 E25.38181
G1 X177.302 Y150.581 E25.39551
G1 X177.077 Y150.708 E25.4084
G1 X176.854 Y150.82 E25.42085
G1 X176.594 Y150.935 E25.43503
G1 X176.36 Y151.027 E25.44758
G1 X176.122 Y151.104 E25.46006
G1 X175.862 Y151.176 E25.47351
G1 X175.596 Y151.235 E25.48711
G1 X175.352 Y151.278 E25.49947
G1 X175.074 Y151.313 E25.51345
G1 X174.827 Y151.33 E25.5258
G1 X174.542 Y151.338 E25.54002
G0 F6000 X174.553 Y151.738
;TYPE:WALL-OUTER
G1 F1200 X45.443 Y151.738 E31.98135
G1 X45.151 Y151.73 E31.99592
G1 X44.881 Y151.71 E32.00943
G1 X44.588 Y151.674 E32.02416
G1 X44.311 Y151.625 E32.03819
G1 X44.047 Y151.566 E32.05169
G1 X43.766 Y151.488 E32.06624
G1 X43.497 Y151.4 E32.08036
G1 X43.236 Y151.298 E32.09434
G1 X42.978 Y151.184 E32.10841
G1 X42.724 Y151.056 E32.1226
G1 X42.476 Y150.915 E32.13683
G1 X42.24 Y150.765 E32.15078
G1 X42.015 Y150.606 E32.16453
G1 X41.785 Y150.426 E32.1791
G1 X41.581 Y150.25 E32.19254
G1 X41.367 Y150.047 E32.20726
G1 X41.175 Y149.844 E32.2212
G1 X40.99 Y149.63 E32.23531
G1 X40.817 Y149.408 E32.24935
G1 X40.653 Y149.174 E32.26361
G1 X40.503 Y148.938 E32.27756
G1 X40.368 Y148.698 E32.2913
G1 X40.238 Y148.44 E32.30571
G1 X40.123 Y148.179 E32.31994
G1 X40.021 Y147.917 E32.33397
G1 X39.934 Y147.649 E32.34802
G1 X39.859 Y147.378 E32.36205
G1 X39.799 Y147.109 E32.3758
G1 X39.749 Y146.821 E32.39039
G1 X39.714 Y146.543 E32.40436
G1 X39.695 Y146.268 E32.41812
G1 X39.688 Y145.984 E32.43229
G1 X39.688 Y74.021 E36.02254
G1 X39.695 Y73.729 E36.03711
G1 X39.714 Y73.454 E36.05086
G1 X39.749 Y73.177 E36.06479
G1 X39.798 Y72.895 E36.07907
G1 X39.86 Y72.619 E36.09319
G1 X39.938 Y72.338 E36.10773
G1 X40.021 Y72.083 E36.12111
G1 X40.125 Y71.816 E36.13541
G1 X40.238 Y71.56 E36.14937
G1 X40.364 Y71.308 E36.16343
G1 X40.503 Y71.062 E36.17752
G1 X40.655 Y70.823 E36.19165
G1 X40.817 Y70.592 E36.20573
G1 X40.997 Y70.362 E36.2203
G1 X41.177 Y70.154 E36.23402
G1 X41.369 Y69.951 E36.24796
G1 X41.581 Y69.75 E36.26254
G1 X41.787 Y69.572 E36.27612
G1 X42.009 Y69.398 E36.29019
G1 X42.248 Y69.23 E36.30477
G1 X42.482 Y69.082 E36.31858
G1 X42.724 Y68.944 E36.33248
G1 X42.985 Y68.813 E36.34705
G1 X43.239 Y68.701 E36.3609
G1 X43.502 Y68.598 E36.37499
G1 X43.766 Y68.512 E36.38884
G1 X44.047 Y68.434 E36.40339
G1 X44.318 Y68.373 E36.41725
G1 X44.601 Y68.324 E36.43158
G1 X44.878 Y68.289 E36.44551
G1 X45.154 Y68.27 E36.45931
G1 X45.446 Y68.262 E36.47389
G1 X98.104 Y68.262 E39.101
G1 X98.399 Y68.27 E39.11573
G1 X98.672 Y68.289 E39.12938
G1 X98.948 Y68.324 E39.14326
G1 X99.239 Y68.375 E39.158
G1 X99.502 Y68.434 E39.17145
G1 X99.786 Y68.513 E39.18615
G1 X100.048 Y68.599 E39.19991
G1 X100.309 Y68.7 E39.21387
G1 X100.574 Y68.817 E39.22833
G1 X100.82 Y68.94 E39.24205
G1 X101.071 Y69.083 E39.25646
G1 X101.305 Y69.232 E39.2703
G1 X101.541 Y69.398 E39.28469
G1 X101.757 Y69.567 E39.29838
G1 X101.969 Y69.75 E39.31235
G1 X102.176 Y69.946 E39.32657
G1 X102.375 Y70.156 E39.341
G1 X102.553 Y70.362 E39.35459
G1 X102.729 Y70.587 E39.36884
G1 X102.895 Y70.823 E39.38323
G1 X103.043 Y71.057 E39.39705
G1 X103.181 Y71.299 E39.41095
G1 X103.312 Y71.56 E39.42552
G1 X103.426 Y71.819 E39.43963
G1 X103.526 Y72.075 E39.45335
G1 X103.614 Y72.344 E39.46747
